X:12
T:C{\^\i}nd eram pe ialomita
A:Roemeni\"e
M:2/4
L:1/8
K:G
"G"GG AB| "D7"c A3| "G"B G3| G4| "D"dd ef| "A7"g e3| "D"f d3-| d4|:\
"G"gg "D"aa| "G"gg d2| "C"ee ce| "D"dc "G"B2|\
"D"AA dc| "G"B2 AG| "D"d4-| d4|\
"G"gg "D"aa| "G"gg d2| "C"ee ce| "D"dc "G"B2|\
"D7"AA dc| B2 AG| "G"G4-| G4:|
